X: 42
T:Quadrille Barwn Merthyr
T:Baron Merthyr's Quadrille
M:2/4
L:1/8
Q:220
S:Cadw Twmpath Collection
R:Polka
A:Wales
Z:brian_martin12345@yahoo.com
K:D
d/e/|"$"ff/e/ dd/c/|dAA2|BB g>e|c/A/B/c/ d/e/f/g/|
ff/e/ dd/c/|dAA2|Bg/e/ d/c/B/c/|e2" Fine"d:||
c/d/|ee/c/ aa/e/|c'c'/a/ ee/c/|dd/B/ ^gg/e/|bb/^g/ ac/d/|
ee/c/ aa/e/|c'c'/a/e2|fd' b^g|a/^g/a/b/ "D.S."a/=g/f/e/||
